X: 27475
T: Molly On The Shore
R: reel
M: 4/4
K: Adorian
a|A>AAB e2d<B|1 e2d<B GAB<G|AAAB edef|gedB A>A A:|
[2 e2d<e GAB<G|AAAB edef|gedB A>A A||B|Aaag a2e>f|gedB GABG|
Aaag a2e>a|gedB AAAB|Aaag a2e>f|gedB GABG|AAAB edef|gedB A2 A||

